assets/spark/icons/CountryFill.svg

<svg viewBox="0 0 24 24" xmlns="http://www.w3.org/2000/svg">
    <path d="M21.3324 16.3855C21.1772 16.1548 20.9442 16.0778 20.7113 16.0009C20.6337 15.924 20.556 15.6933 20.4784 15.3087L20.6337 15.078C20.8666 14.6934 20.8666 14.232 20.556 13.8474C20.6337 13.6167 20.6337 13.309 20.556 13.0014L20.0902 12.0785C20.0126 11.9246 19.9349 11.8477 19.7796 11.6939L19.9349 11.3863H20.0902C20.556 11.3863 20.9442 11.0786 21.0219 10.6941L21.2548 9.84805C21.3324 9.69422 21.3324 9.46349 21.2548 9.30967C21.0995 8.69438 21.5654 7.84836 21.7983 7.54071C22.0312 7.23307 22.0312 6.92543 21.9536 6.61778C21.7983 6.31014 21.5654 6.0794 21.2548 6.00249L19.7796 5.77176L18.1492 5.15647L16.8293 4.07972C16.5187 3.84898 16.2082 3.77207 15.82 3.92589C15.4318 4.07972 14.9659 3.3106 14.9659 3.3106C14.8883 3.23369 14.8883 3.15678 14.8107 3.07987L13.879 2.23385C13.5684 2.00312 13.1802 1.92621 12.792 2.08003L11.4721 2.6184C11.0839 2.77223 10.851 3.23369 10.851 3.61825C10.9286 4.46427 10.1522 4.695 9.91931 4.77192C9.53111 4.84883 9.22055 5.15647 9.14291 5.54103L8.98763 5.15647C8.83235 4.84883 8.52179 4.695 8.13359 4.61809L6.96898 4.54118C6.65842 4.54118 6.27022 4.695 6.11494 4.92574C5.88202 5.23338 5.88202 5.61794 6.0373 5.92558L6.34786 6.69469C5.88202 6.31014 5.6491 6.23323 5.33853 6.23323C5.18325 6.23323 5.10561 6.23323 2.7764 6.84851C2.31056 6.92543 2 7.30998 2 7.69454V8.61747C2 8.8482 2.07764 9.07894 2.23292 9.23276L2.62112 9.77114C2.7764 9.92496 2.93168 10.0788 3.1646 10.1557L4.63977 10.4633L5.49381 11.2324L5.57146 11.7708C5.57146 12.0016 5.72674 12.1554 5.80438 12.3092L6.65842 13.2321C6.89134 16.3855 5.72674 18.0775 5.72674 18.0775C5.41617 18.4621 5.49381 19.0774 5.88202 19.4619L7.27954 20.6156C7.43482 20.6925 7.5901 20.7694 7.74538 20.8463L9.60875 21.2309C9.84167 21.3078 10.0746 21.2309 10.3075 21.0771L12.3262 21.9231C12.4814 22 12.5591 22 12.7144 22C12.792 22 12.8696 22 12.8696 22L14.0343 21.7693C14.2672 21.6924 14.5777 21.5385 14.6554 21.3078C14.8107 21.0771 14.8107 20.7694 14.733 20.5387C14.6554 20.1541 14.733 20.0003 14.733 19.9234C14.8107 19.7696 15.0436 19.6158 15.2765 19.5388L17.4504 20.308C17.6833 20.3849 17.9163 20.3849 18.1492 20.308L19.6244 19.7696C19.7796 19.6927 19.8573 19.6927 19.9349 19.5388L21.3324 18.2314C21.7206 17.9237 21.7206 17.3084 21.4877 16.9239L21.3324 16.3855Z"/>
</svg>

<svg viewBox="0 0 24 24" xmlns="http://www.w3.org/2000/svg">
  <path d="m21.33,16.39c-.16-.23-.39-.31-.62-.38-.08-.08-.16-.31-.23-.69l.16-.23c.23-.38.23-.85-.08-1.23.08-.23.08-.54,0-.85l-.47-.92c-.08-.15-.16-.23-.31-.38l.16-.31h.16c.47,0,.85-.31.93-.69l.23-.85c.08-.15.08-.38,0-.54-.16-.62.31-1.46.54-1.77.23-.31.23-.62.16-.92-.16-.31-.39-.54-.7-.62l-1.48-.23-1.63-.62-1.32-1.08c-.31-.23-.62-.31-1.01-.15-.39.15-.85-.62-.85-.62-.08-.08-.08-.15-.16-.23l-.93-.85c-.31-.23-.7-.31-1.09-.15l-1.32.54c-.39.15-.62.62-.62,1,.08.85-.7,1.08-.93,1.15-.39.08-.7.38-.78.77l-.16-.38c-.16-.31-.47-.46-.85-.54l-1.16-.08c-.31,0-.7.15-.85.38-.23.31-.23.69-.08,1l.31.77c-.47-.38-.7-.46-1.01-.46-.16,0-.23,0-2.56.62-.47.08-.78.46-.78.85v.92c0,.23.08.46.23.62l.39.54c.16.15.31.31.54.38l1.48.31.85.77.08.54c0,.23.16.38.23.54l.85.92c.23,3.15-.93,4.85-.93,4.85-.31.38-.23,1,.16,1.38l1.4,1.15c.16.08.31.15.47.23l1.86.38c.23.08.47,0,.7-.15l2.02.85c.16.08.23.08.39.08h.16l1.16-.23c.23-.08.54-.23.62-.46.16-.23.16-.54.08-.77-.08-.38,0-.54,0-.62.08-.15.31-.31.54-.38l2.17.77c.23.08.47.08.7,0l1.48-.54c.16-.08.23-.08.31-.23l1.4-1.31c.39-.31.39-.92.16-1.31l-.16-.54Z"/>
</svg>
